X:1688
L:1/8
M:2/2
K:C
 ([de-]2 | [ee]3) (d e)g(ed) | cd e2 !slide![ee]3 d | c3 d edec | dcAG EDCA, | G,A,CD EGAc | 
 !slide![ee]4 [ee]3 d | c2 [ee]2- [ee] g3 | a3 b ag e2 | g8 | !slide![ee]6 (ed) | 
 cd e2 !slide![ee]3 d | c3 d edec | dc A2 G4- |[M:2/4] G2 ga- |[M:2/2] agab agea | g^fga gedB | 
 GAcd ec (d/e/d) |1 c8 :|2 c6 EG- |: G3 A G2 E2 | C8 | c3 d c3 G | A4- A2 ga- | agab agea | 
 g2 (a/g/^f) geBc | dcde dcAB | c6 EF | GFGA G E3 | C8 | c4 _B4 | A4- A2 ga- | a3 b agea | 
 g2 (a/g/^f) gedB | GAcd ec (d/e/d) |1 c6 EG :|2 c6 |: GA | c2 GA c2 cd | edec dcAG | 
 A d2 e d2 cd | edec dcAG | A c2 d c3 d | edec dcAG | e g2 a gede | c6 :|

